img/Frame 120.svg

<svg width="170" height="52" viewBox="0 0 170 52" fill="none" xmlns="http://www.w3.org/2000/svg">
<g clip-path="url(#clip0_514_983)">
<path d="M26.8099 10.7689C26.8099 13.6838 24.4961 15.8317 21.6564 15.8317C18.8168 15.8317 16.5029 13.6838 16.5029 10.7689C16.5029 7.83345 18.8168 5.70605 21.6564 5.70605C24.4961 5.70605 26.8099 7.83345 26.8099 10.7689ZM24.554 10.7689C24.554 8.94736 23.2129 7.70106 21.6564 7.70106C20.1 7.70106 18.7589 8.94736 18.7589 10.7689C18.7589 12.5721 20.1 13.8367 21.6564 13.8367C23.2129 13.8367 24.554 12.5699 24.554 10.7689Z" fill="#232323"/>
<path d="M37.9271 10.7689C37.9271 13.6838 35.6132 15.8317 32.7736 15.8317C29.934 15.8317 27.6201 13.6838 27.6201 10.7689C27.6201 7.83573 29.934 5.70605 32.7736 5.70605C35.6132 5.70605 37.9271 7.83345 37.9271 10.7689ZM35.6711 10.7689C35.6711 8.94736 34.3301 7.70106 32.7736 7.70106C31.2171 7.70106 29.8761 8.94736 29.8761 10.7689C29.8761 12.5721 31.2171 13.8367 32.7736 13.8367C34.3301 13.8367 35.6711 12.5699 35.6711 10.7689Z" fill="#232323"/>
<path d="M48.5818 6.01192V15.1013C48.5818 18.8402 46.3444 20.3673 43.6993 20.3673C41.2094 20.3673 39.7108 18.7261 39.1457 17.3839L41.1098 16.5781C41.4595 17.4021 42.3165 18.3745 43.697 18.3745C45.3901 18.3745 46.4393 17.3451 46.4393 15.4071V14.679H46.3606C45.8556 15.293 44.8828 15.8294 43.6553 15.8294C41.0866 15.8294 38.7334 13.6244 38.7334 10.7871C38.7334 7.92932 41.0866 5.70605 43.6553 5.70605C44.8805 5.70605 45.8533 6.24247 46.3606 6.83823H46.4393V6.01421H48.5818V6.01192ZM46.5991 10.7871C46.5991 9.00442 45.3924 7.70105 43.8568 7.70105C42.3003 7.70105 40.9963 9.00442 40.9963 10.7871C40.9963 12.5516 42.3003 13.8367 43.8568 13.8367C45.3924 13.8367 46.5991 12.5516 46.5991 10.7871Z" fill="#232323"/>
<path d="M52.1144 0.68457V15.5215H49.9141V0.68457H52.1144Z" fill="#232323"/>
<path d="M60.6887 12.4355L62.4397 13.5859C61.8746 14.41 60.5127 15.8298 58.1594 15.8298C55.241 15.8298 53.0615 13.6065 53.0615 10.7669C53.0615 7.75617 55.2596 5.7041 57.907 5.7041C60.5729 5.7041 61.8769 7.79497 62.3031 8.92486L62.537 9.50008L55.6695 12.3031C56.1953 13.3189 57.0129 13.837 58.1594 13.837C59.3083 13.837 60.105 13.2801 60.6887 12.4355ZM55.299 10.614L59.8896 8.73541C59.6372 8.10312 58.8774 7.66258 57.9834 7.66258C56.8369 7.66258 55.241 8.66008 55.299 10.614Z" fill="#232323"/>
<path d="M8.17341 9.45242V7.30449H15.518C15.5898 7.67884 15.6269 8.12166 15.6269 8.60101C15.6269 10.2125 15.1798 12.2052 13.7392 13.625C12.3379 15.0631 10.5475 15.83 8.17573 15.83C3.77963 15.83 0.0830078 12.3011 0.0830078 7.96873C0.0830078 3.63633 3.77963 0.107422 8.17573 0.107422C10.6077 0.107422 12.3402 1.04786 13.6419 2.27362L12.104 3.78927C11.1705 2.92644 9.90591 2.25536 8.17341 2.25536C4.96319 2.25536 2.45246 4.80503 2.45246 7.96873C2.45246 11.1324 4.96319 13.6821 8.17341 13.6821C10.2557 13.6821 11.4415 12.8581 12.2012 12.1094C12.8173 11.5022 13.2227 10.6348 13.3825 9.45014L8.17341 9.45242Z" fill="#232323"/>
</g>
<path d="M9 30.5L11.0206 36.7188H17.5595L12.2694 40.5623L14.2901 46.7812L9 42.9377L3.70993 46.7812L5.73056 40.5623L0.440492 36.7188H6.97937L9 30.5Z" fill="#EA9537"/>
<path d="M31 30.5L33.0206 36.7188H39.5595L34.2694 40.5623L36.2901 46.7812L31 42.9377L25.7099 46.7812L27.7306 40.5623L22.4405 36.7188H28.9794L31 30.5Z" fill="#EA9537"/>
<path d="M53 30.5L55.0206 36.7188H61.5595L56.2694 40.5623L58.2901 46.7812L53 42.9377L47.7099 46.7812L49.7306 40.5623L44.4405 36.7188H50.9794L53 30.5Z" fill="#EA9537"/>
<path d="M75 30.5L77.0206 36.7188H83.5595L78.2694 40.5623L80.2901 46.7812L75 42.9377L69.7099 46.7812L71.7306 40.5623L66.4405 36.7188H72.9794L75 30.5Z" fill="#EA9537"/>
<mask id="mask0_514_983" style="mask-type:alpha" maskUnits="userSpaceOnUse" x="88" y="28" width="9" height="20">
<rect x="88" y="28.5" width="9" height="19" fill="#D9D9D9"/>
</mask>
<g mask="url(#mask0_514_983)">
<path d="M97 30L99.0206 36.2188H105.56L100.269 40.0623L102.29 46.2812L97 42.4377L91.7099 46.2812L93.7306 40.0623L88.4405 36.2188H94.9794L97 30Z" fill="#EA9537"/>
</g>
<path opacity="0.5" d="M97 30L99.0206 36.2188H105.56L100.269 40.0623L102.29 46.2812L97 42.4377L91.7099 46.2812L93.7306 40.0623L88.4405 36.2188H94.9794L97 30Z" fill="#EA9537"/>
<path d="M121.192 46V43.768H115.8V42.648L119.656 34.48H120.976L117.12 42.648H121.192V39.288H122.376V42.648H123.632V43.768H122.376V46H121.192ZM125.469 46V44.632H126.837V46H125.469ZM132.404 46.232C131.833 46.232 131.308 46.1307 130.828 45.928C130.348 45.7253 129.934 45.4373 129.588 45.064C129.241 44.6853 128.988 44.2347 128.828 43.712L129.948 43.376C130.14 43.9467 130.454 44.3787 130.892 44.672C131.334 44.9653 131.833 45.1067 132.388 45.096C132.9 45.0853 133.34 44.9707 133.708 44.752C134.081 44.5333 134.366 44.2293 134.564 43.84C134.761 43.4507 134.86 43 134.86 42.488C134.86 41.704 134.63 41.0747 134.172 40.6C133.718 40.12 133.118 39.88 132.372 39.88C132.164 39.88 131.945 39.9093 131.716 39.968C131.486 40.0213 131.273 40.0987 131.076 40.2L130.484 39.264L134.964 35.128L135.156 35.608H129.284V34.48H135.94V35.624L132.036 39.352L132.02 38.888C132.82 38.7867 133.524 38.8773 134.132 39.16C134.74 39.4427 135.214 39.8747 135.556 40.456C135.902 41.032 136.076 41.7093 136.076 42.488C136.076 43.224 135.916 43.8747 135.596 44.44C135.281 45 134.846 45.44 134.292 45.76C133.737 46.0747 133.108 46.232 132.404 46.232ZM148.218 37.36V46H147.074V39.272L142.338 46H141.346V37.36H142.49V44.032L147.234 37.36H148.218ZM153.576 46.24C152.706 46.24 151.946 46.0507 151.296 45.672C150.65 45.288 150.141 44.7573 149.768 44.08L150.712 43.48C151.026 44.0133 151.418 44.4187 151.888 44.696C152.357 44.9733 152.896 45.112 153.504 45.112C154.138 45.112 154.648 44.9653 155.032 44.672C155.416 44.3787 155.608 43.976 155.608 43.464C155.608 43.112 155.525 42.832 155.36 42.624C155.2 42.416 154.954 42.2667 154.624 42.176C154.298 42.0853 153.89 42.04 153.4 42.04H152.376V41.032H153.384C153.981 41.032 154.461 40.9253 154.824 40.712C155.192 40.4933 155.376 40.152 155.376 39.688C155.376 39.1973 155.192 38.8347 154.824 38.6C154.461 38.36 154.026 38.24 153.52 38.24C153.008 38.24 152.522 38.3467 152.064 38.56C151.61 38.768 151.229 39.0373 150.92 39.368L150.168 38.576C150.6 38.1013 151.104 37.7413 151.68 37.496C152.261 37.2453 152.904 37.12 153.608 37.12C154.162 37.12 154.664 37.2187 155.112 37.416C155.565 37.608 155.922 37.8907 156.184 38.264C156.45 38.6373 156.584 39.0853 156.584 39.608C156.584 40.0987 156.464 40.5227 156.224 40.88C155.989 41.2373 155.656 41.5333 155.224 41.768L155.16 41.328C155.533 41.3973 155.842 41.5467 156.088 41.776C156.333 42.0053 156.514 42.28 156.632 42.6C156.749 42.92 156.808 43.2453 156.808 43.576C156.808 44.1253 156.664 44.6 156.376 45C156.093 45.3947 155.706 45.7013 155.216 45.92C154.73 46.1333 154.184 46.24 153.576 46.24ZM165.176 46.24C164.579 46.24 164.027 46.1173 163.52 45.872C163.014 45.6267 162.582 45.288 162.224 44.856C161.867 44.424 161.611 43.928 161.456 43.368L162.584 43.064C162.686 43.48 162.87 43.84 163.136 44.144C163.403 44.4427 163.715 44.6747 164.072 44.84C164.435 45.0053 164.814 45.088 165.208 45.088C165.72 45.088 166.179 44.9653 166.584 44.72C166.995 44.4693 167.32 44.1387 167.56 43.728C167.8 43.3173 167.92 42.8667 167.92 42.376C167.92 41.8693 167.795 41.4133 167.544 41.008C167.294 40.5973 166.963 40.272 166.552 40.032C166.142 39.792 165.694 39.672 165.208 39.672C164.664 39.672 164.195 39.792 163.8 40.032C163.406 40.2667 163.091 40.5627 162.856 40.92L161.784 40.472L162.136 34.48H168.288V35.608H162.656L163.24 35.056L162.928 40.168L162.632 39.776C162.963 39.3973 163.363 39.1013 163.832 38.888C164.302 38.6747 164.795 38.568 165.312 38.568C166.022 38.568 166.662 38.7387 167.232 39.08C167.803 39.416 168.256 39.872 168.592 40.448C168.928 41.024 169.096 41.6667 169.096 42.376C169.096 43.08 168.918 43.7253 168.56 44.312C168.203 44.8933 167.728 45.36 167.136 45.712C166.544 46.064 165.891 46.24 165.176 46.24Z" fill="#232323"/>
<defs>
<clipPath id="clip0_514_983">
<rect width="63" height="21" fill="white"/>
</clipPath>
</defs>
</svg>

<svg xmlns="http://www.w3.org/2000/svg" width="170" height="52" fill="none"><g fill="#232323" clip-path="url(#a)"><path d="M26.81 10.769c0 2.915-2.314 5.063-5.154 5.063s-5.153-2.148-5.153-5.063c0-2.936 2.314-5.063 5.153-5.063 2.84 0 5.154 2.127 5.154 5.063Zm-2.256 0c0-1.822-1.341-3.068-2.898-3.068-1.556 0-2.897 1.246-2.897 3.068 0 1.803 1.341 3.068 2.897 3.068 1.557 0 2.898-1.267 2.898-3.068ZM37.927 10.769c0 2.915-2.314 5.063-5.153 5.063-2.84 0-5.154-2.148-5.154-5.063 0-2.933 2.314-5.063 5.154-5.063s5.153 2.127 5.153 5.063Zm-2.256 0c0-1.822-1.34-3.068-2.897-3.068-1.557 0-2.898 1.246-2.898 3.068 0 1.803 1.341 3.068 2.898 3.068 1.556 0 2.897-1.267 2.897-3.068ZM48.582 6.012v9.09c0 3.738-2.238 5.265-4.883 5.265-2.49 0-3.988-1.64-4.553-2.983l1.964-.806c.35.824 1.206 1.797 2.587 1.797 1.693 0 2.742-1.03 2.742-2.968v-.728h-.078c-.505.614-1.478 1.15-2.706 1.15-2.568 0-4.922-2.205-4.922-5.042 0-2.858 2.354-5.081 4.922-5.081 1.225 0 2.198.536 2.706 1.132h.078v-.824h2.143v-.002Zm-1.983 4.775c0-1.783-1.207-3.086-2.742-3.086-1.557 0-2.86 1.303-2.86 3.086 0 1.765 1.303 3.05 2.86 3.05 1.535 0 2.742-1.285 2.742-3.05ZM52.114.685V15.52h-2.2V.685h2.2ZM60.689 12.435l1.75 1.15c-.564.825-1.926 2.245-4.28 2.245-2.918 0-5.097-2.223-5.097-5.063 0-3.01 2.198-5.063 4.845-5.063 2.666 0 3.97 2.091 4.396 3.22l.234.576-6.867 2.803c.525 1.016 1.343 1.534 2.49 1.534 1.148 0 1.945-.557 2.529-1.402Zm-5.39-1.821 4.59-1.879c-.252-.632-1.012-1.072-1.906-1.072-1.146 0-2.742.997-2.684 2.951ZM8.173 9.452V7.304h7.345c.072.375.109.818.109 1.297 0 1.611-.447 3.604-1.888 5.024-1.401 1.438-3.192 2.205-5.563 2.205-4.396 0-8.093-3.529-8.093-7.861C.083 3.636 3.78.107 8.176.107c2.432 0 4.164.94 5.466 2.167l-1.538 1.515c-.933-.863-2.198-1.534-3.93-1.534A5.68 5.68 0 0 0 2.451 7.97a5.68 5.68 0 0 0 5.721 5.713c2.083 0 3.268-.824 4.028-1.573.616-.607 1.022-1.474 1.181-2.659l-5.209.002Z"/></g><path fill="#EA9537" d="m9 30.5 2.02 6.219h6.54l-5.29 3.843 2.02 6.22L9 42.937 3.71 46.78l2.02-6.219L.44 36.72h6.54L9 30.5ZM31 30.5l2.02 6.219h6.54l-5.29 3.843 2.02 6.22L31 42.937l-5.29 3.843 2.02-6.219-5.29-3.843h6.54L31 30.5ZM53 30.5l2.02 6.219h6.54l-5.29 3.843 2.02 6.22L53 42.937l-5.29 3.843 2.02-6.219-5.29-3.843h6.54L53 30.5ZM75 30.5l2.02 6.219h6.54l-5.29 3.843 2.02 6.22L75 42.937l-5.29 3.843 2.02-6.219-5.29-3.843h6.54L75 30.5Z"/><mask id="b" width="9" height="20" x="88" y="28" maskUnits="userSpaceOnUse" style="mask-type:alpha"><path fill="#D9D9D9" d="M88 28.5h9v19h-9z"/></mask><g mask="url(#b)"><path fill="#EA9537" d="m97 30 2.02 6.219h6.54l-5.291 3.843 2.021 6.22L97 42.437l-5.29 3.843 2.02-6.219-5.29-3.843h6.54L97 30Z"/></g><path fill="#EA9537" d="m97 30 2.02 6.219h6.54l-5.291 3.843 2.021 6.22L97 42.437l-5.29 3.843 2.02-6.219-5.29-3.843h6.54L97 30Z" opacity=".5"/><path fill="#232323" d="M121.192 46v-2.232H115.8v-1.12l3.856-8.168h1.32l-3.856 8.168h4.072v-3.36h1.184v3.36h1.256v1.12h-1.256V46h-1.184Zm4.277 0v-1.368h1.368V46h-1.368Zm6.935.232a4.009 4.009 0 0 1-1.576-.304 3.556 3.556 0 0 1-1.24-.864c-.347-.379-.6-.83-.76-1.352l1.12-.336c.192.57.506 1.003.944 1.296.442.293.941.435 1.496.424.512-.01.952-.125 1.32-.344a2.18 2.18 0 0 0 .856-.912c.197-.39.296-.84.296-1.352 0-.784-.23-1.413-.688-1.888-.454-.48-1.054-.72-1.8-.72-.208 0-.427.03-.656.088a2.75 2.75 0 0 0-.64.232l-.592-.936 4.48-4.136.192.48h-5.872V34.48h6.656v1.144l-3.904 3.728-.016-.464c.8-.101 1.504-.01 2.112.272a3.165 3.165 0 0 1 1.424 1.296c.346.576.52 1.253.52 2.032 0 .736-.16 1.387-.48 1.952-.315.56-.75 1-1.304 1.32-.555.315-1.184.472-1.888.472Zm15.814-8.872V46h-1.144v-6.728L142.338 46h-.992v-8.64h1.144v6.672l4.744-6.672h.984Zm5.358 8.88c-.87 0-1.63-.19-2.28-.568a4.132 4.132 0 0 1-1.528-1.592l.944-.6c.314.533.706.939 1.176 1.216.469.277 1.008.416 1.616.416.634 0 1.144-.147 1.528-.44.384-.293.576-.696.576-1.208 0-.352-.083-.632-.248-.84-.16-.208-.406-.357-.736-.448-.326-.09-.734-.136-1.224-.136h-1.024v-1.008h1.008c.597 0 1.077-.107 1.44-.32.368-.219.552-.56.552-1.024 0-.49-.184-.853-.552-1.088-.363-.24-.798-.36-1.304-.36a3.41 3.41 0 0 0-1.456.32 3.588 3.588 0 0 0-1.144.808l-.752-.792a4.307 4.307 0 0 1 1.512-1.08 4.818 4.818 0 0 1 1.928-.376c.554 0 1.056.099 1.504.296.453.192.81.475 1.072.848.266.373.4.821.4 1.344 0 .49-.12.915-.36 1.272-.235.357-.568.653-1 .888l-.064-.44c.373.07.682.219.928.448.245.23.426.504.544.824.117.32.176.645.176.976 0 .55-.144 1.024-.432 1.424a2.79 2.79 0 0 1-1.16.92 4.038 4.038 0 0 1-1.64.32Zm11.6 0a3.752 3.752 0 0 1-1.656-.368 3.839 3.839 0 0 1-1.296-1.016 3.968 3.968 0 0 1-.768-1.488l1.128-.304c.102.416.286.776.552 1.08.267.299.579.53.936.696.363.165.742.248 1.136.248.512 0 .971-.123 1.376-.368.411-.25.736-.581.976-.992.24-.41.36-.861.36-1.352 0-.507-.125-.963-.376-1.368a2.796 2.796 0 0 0-.992-.976c-.41-.24-.858-.36-1.344-.36-.544 0-1.013.12-1.408.36a2.86 2.86 0 0 0-.944.888l-1.072-.448.352-5.992h6.152v1.128h-5.632l.584-.552-.312 5.112-.296-.392a3.495 3.495 0 0 1 1.2-.888 3.54 3.54 0 0 1 1.48-.32c.71 0 1.35.17 1.92.512a3.756 3.756 0 0 1 1.36 1.368c.336.576.504 1.219.504 1.928 0 .704-.178 1.35-.536 1.936a4.11 4.11 0 0 1-1.424 1.4 3.763 3.763 0 0 1-1.96.528Z"/><defs><clipPath id="a"><path fill="#fff" d="M0 0h63v21H0z"/></clipPath></defs></svg>
